svg/baidu.svg

<?xml version="1.0" encoding="UTF-8" standalone="no"?>
<!DOCTYPE svg PUBLIC "-//W3C//DTD SVG 1.1//EN" "http://www.w3.org/Graphics/SVG/1.1/DTD/svg11.dtd">
<svg width="100%" height="100%" viewBox="0 0 32 32" version="1.1" xmlns="http://www.w3.org/2000/svg" xmlns:xlink="http://www.w3.org/1999/xlink" xml:space="preserve" xmlns:serif="http://www.serif.com/" style="fill-rule:evenodd;clip-rule:evenodd;stroke-linejoin:round;stroke-miterlimit:2;">
    <g transform="matrix(1,0,0,1,-1731.07,-528.641)">
        <g transform="matrix(1,0,0,1,790.563,0.883016)">
            <g transform="matrix(1.14286,0,0,1.14286,-140.631,-73.3853)">
                <path d="M968.037,543.185c0.819,0.775 4.288,2.616 3.535,6.644c-0.747,3.971 -4.51,4.149 -4.51,4.149c0,0 -1.762,0.188 -4.793,-0.543c-0.828,-0.182 -1.594,-0.247 -2.269,-0.253c-0.675,0.006 -1.444,0.071 -2.269,0.253c-3.034,0.731 -4.793,0.543 -4.793,0.543c-0,0 -3.763,-0.178 -4.51,-4.149c-0.756,-4.028 2.716,-5.869 3.535,-6.644c0.656,-0.619 2.475,-1.844 3.853,-4.131c0.928,-1.509 2.509,-2.531 4.184,-2.497c1.675,-0.034 3.256,0.988 4.184,2.497c1.381,2.287 3.197,3.512 3.853,4.131Zm-4.117,1.615c-0.32,-0.302 -1.206,-0.9 -1.879,-2.015c-0.453,-0.736 -1.224,-1.235 -2.041,-1.218c-0.817,-0.017 -1.588,0.482 -2.041,1.218c-0.672,1.115 -1.559,1.713 -1.879,2.015c-0.4,0.378 -2.093,1.275 -1.724,3.24c0.364,1.937 2.199,2.024 2.199,2.024c0,0 0.858,0.092 2.338,-0.265c0.403,-0.088 0.778,-0.121 1.107,-0.124c0.329,0.003 0.702,0.036 1.106,0.124c1.479,0.357 2.338,0.265 2.338,0.265c0,0 1.836,-0.087 2.2,-2.024c0.367,-1.965 -1.325,-2.862 -1.724,-3.24Zm-13.32,-3.962c-2.393,0.331 -3.843,-1.728 -3.856,-3.818c-0.012,-2.197 1.163,-4.066 3.063,-4.238c1.978,-0.178 3.178,1.859 3.365,3.647c0.213,2.022 -0.506,4.125 -2.572,4.409Zm18.8,0c-2.066,-0.284 -2.785,-2.387 -2.572,-4.409c0.187,-1.788 1.387,-3.825 3.365,-3.647c1.9,0.172 3.075,2.041 3.063,4.238c-0.013,2.09 -1.463,4.149 -3.856,3.818Zm-13.044,-6.512c-2.268,0.215 -3.828,-1.722 -3.75,-4.153c0.069,-2.328 1.475,-4.075 3.216,-4.169c1.959,-0.103 3.2,1.713 3.253,3.978c0.047,2.056 -0.678,4.15 -2.719,4.344Zm7.288,-0c-2.041,-0.194 -2.769,-2.288 -2.719,-4.344c0.053,-2.265 1.297,-4.081 3.253,-3.978c1.741,0.094 3.147,1.841 3.216,4.169c0.078,2.431 -1.482,4.368 -3.75,4.153Z" style="fill:url(#_Linear1);"/>
            </g>
        </g>
        <g transform="matrix(1,0,0,1,790.563,0.883016)">
            <g transform="matrix(3.31275,0,0,0.50503,701.911,507.234)">
                <rect x="72.025" y="40.637" width="9.66" height="63.363" style="fill:none;"/>
            </g>
        </g>
    </g>
    <defs>
        <linearGradient id="_Linear1" x1="0" y1="0" x2="1" y2="0" gradientUnits="userSpaceOnUse" gradientTransform="matrix(26.512,0,0,28,946.744,540)"><stop offset="0" style="stop-color:rgb(137,178,227);stop-opacity:1"/><stop offset="1" style="stop-color:rgb(173,201,235);stop-opacity:1"/></linearGradient>
    </defs>
</svg>

<?xml version="1.0" encoding="UTF-8" standalone="no"?>
<!DOCTYPE svg PUBLIC "-//W3C//DTD SVG 1.1//EN" "http://www.w3.org/Graphics/SVG/1.1/DTD/svg11.dtd">
<svg width="100%" height="100%" viewBox="0 0 134 134" version="1.1" xmlns="http://www.w3.org/2000/svg" xmlns:xlink="http://www.w3.org/1999/xlink" xml:space="preserve" xmlns:serif="http://www.serif.com/" style="fill-rule:evenodd;clip-rule:evenodd;stroke-linejoin:round;stroke-miterlimit:2;">
    <g transform="matrix(1,0,0,1,-1436.87,-1904.32)">
        <g id="clipboard1.svg" transform="matrix(4.16667,0,0,4.16667,1428.19,2437.68)">
            <g transform="matrix(1,0,0,1,-96.5,-96.5)">
                <clipPath id="_clip1">
                    <rect x="0" y="0" width="193" height="193"/>
                </clipPath>
                <g clip-path="url(#_clip1)">
                    <g id="_-bdbdbdbd" serif:id="#bdbdbdbd">
                    </g>
                    <g id="_-e5e5e5e5" serif:id="#e5e5e5e5">
                    </g>
                    <g id="_-42424243" serif:id="#42424243">
                    </g>
                    <g id="_-c5afb2ff" serif:id="#c5afb2ff">
                    </g>
                    <g id="_-e1caabff" serif:id="#e1caabff">
                    </g>
                    <g id="_-f7e6a6ff" serif:id="#f7e6a6ff">
                    </g>
                    <g id="_-f0d5b8ff" serif:id="#f0d5b8ff">
                    </g>
                    <g id="_-f8e5a5ff" serif:id="#f8e5a5ff">
                    </g>
                    <g id="_-e4cc91ff" serif:id="#e4cc91ff">
                    </g>
                    <g id="_-e4d191ff" serif:id="#e4d191ff">
                    </g>
                    <g id="_-fff2d5ff" serif:id="#fff2d5ff">
                    </g>
                    <g id="_-d9b77eff" serif:id="#d9b77eff">
                    </g>
                    <g id="_-fdfcf1ff" serif:id="#fdfcf1ff">
                    </g>
                    <g id="_-daac87ff" serif:id="#daac87ff">
                    </g>
                    <g id="_-e1c9a1ff" serif:id="#e1c9a1ff">
                    </g>
                    <g id="_-fffce8ff" serif:id="#fffce8ff">
                    </g>
                    <g id="_-f1d29cff" serif:id="#f1d29cff">
                    </g>
                    <g id="_-f2d79eff" serif:id="#f2d79eff">
                    </g>
                    <g id="_-d7ba80ff" serif:id="#d7ba80ff">
                    </g>
                    <g id="_-e3c08fff" serif:id="#e3c08fff">
                    </g>
                    <g id="_-f2dc9fff" serif:id="#f2dc9fff">
                    </g>
                    <g id="_-f2dda0ff" serif:id="#f2dda0ff">
                    </g>
                    <g id="_-eac0b1ff" serif:id="#eac0b1ff">
                    </g>
                    <g id="_-f1de9dff" serif:id="#f1de9dff">
                    </g>
                    <g id="_-dec5a9ff" serif:id="#dec5a9ff">
                    </g>
                    <g id="_-9d5e51ff" serif:id="#9d5e51ff">
                    </g>
                    <g id="_-fefbedff" serif:id="#fefbedff">
                    </g>
                    <g id="_-342b29ff" serif:id="#342b29ff">
                    </g>
                    <g id="_-a35044ff" serif:id="#a35044ff">
                    </g>
                    <g id="_-d8b884ff" serif:id="#d8b884ff">
                    </g>
                    <g id="_-f2d69eff" serif:id="#f2d69eff">
                    </g>
                    <g id="_-f1dbccff" serif:id="#f1dbccff">
                    </g>
                    <g id="_-936d6aff" serif:id="#936d6aff">
                    </g>
                    <g id="_-f1d89eff" serif:id="#f1d89eff">
                    </g>
                    <g id="_-e8be9dff" serif:id="#e8be9dff">
                    </g>
                    <g id="_-ccaca7ff" serif:id="#ccaca7ff">
                    </g>
                    <g id="_-f3d7cbff" serif:id="#f3d7cbff">
                    </g>
                    <g id="_-fefcf9ff" serif:id="#fefcf9ff">
                    </g>
                    <g id="_-dbd2d9ff" serif:id="#dbd2d9ff">
                    </g>
                    <g id="_-d9c9adff" serif:id="#d9c9adff">
                    </g>
                    <g id="_-fdf8eaff" serif:id="#fdf8eaff">
                    </g>
                    <g id="_-f2d0c0ff" serif:id="#f2d0c0ff">
                    </g>
                    <g id="_-fdfae8ff" serif:id="#fdfae8ff">
                    </g>
                    <g id="_-f3d19fff" serif:id="#f3d19fff">
                    </g>
                    <g id="_-dcd4dbff" serif:id="#dcd4dbff">
                    </g>
                    <g id="_-c8b0acff" serif:id="#c8b0acff">
                    </g>
                </g>
            </g>
        </g>
        <g id="baidu.svg" transform="matrix(4.16667,0,0,4.16667,1503.53,1970.99)">
            <g transform="matrix(1,0,0,1,-16,-16)">
                <clipPath id="_clip2">
                    <rect x="0" y="0" width="32" height="32"/>
                </clipPath>
                <g clip-path="url(#_clip2)">
                    <g transform="matrix(1,0,0,1,-1731.07,-528.641)">
                        <g transform="matrix(1.14286,0,0,1.14286,649.932,-72.5023)">
                            <path d="M968.037,543.185C968.856,543.96 972.325,545.801 971.572,549.829C970.825,553.8 967.062,553.978 967.062,553.978C967.062,553.978 965.3,554.166 962.269,553.435C961.441,553.253 960.675,553.188 960,553.182C959.325,553.188 958.556,553.253 957.731,553.435C954.697,554.166 952.938,553.978 952.938,553.978C952.938,553.978 949.175,553.8 948.428,549.829C947.672,545.801 951.144,543.96 951.963,543.185C952.619,542.566 954.438,541.341 955.816,539.054C956.744,537.545 958.325,536.523 960,536.557C961.675,536.523 963.256,537.545 964.184,539.054C965.565,541.341 967.381,542.566 968.037,543.185ZM963.92,544.8C963.6,544.498 962.714,543.9 962.041,542.785C961.588,542.049 960.817,541.55 960,541.567C959.183,541.55 958.412,542.049 957.959,542.785C957.287,543.9 956.4,544.498 956.08,544.8C955.68,545.178 953.987,546.075 954.356,548.04C954.72,549.977 956.555,550.064 956.555,550.064C956.555,550.064 957.413,550.156 958.893,549.799C959.296,549.711 959.671,549.678 960,549.675C960.329,549.678 960.702,549.711 961.106,549.799C962.585,550.156 963.444,550.064 963.444,550.064C963.444,550.064 965.28,549.977 965.644,548.04C966.011,546.075 964.319,545.178 963.92,544.8Z" style="fill:url(#_Radial3);"/>
                        </g>
                        <g transform="matrix(1.14286,0,0,1.14286,649.932,-72.5023)">
                            <path d="M963.644,534.326C961.603,534.132 960.875,532.038 960.925,529.982C960.978,527.717 962.222,525.901 964.178,526.004C965.919,526.098 967.325,527.845 967.394,530.173C967.472,532.604 965.912,534.541 963.644,534.326Z" style="fill:url(#_Linear4);"/>
                        </g>
                        <g transform="matrix(1.14286,0,0,1.14286,649.932,-72.5023)">
                            <path d="M956.356,534.326C954.088,534.541 952.528,532.604 952.606,530.173C952.675,527.845 954.081,526.098 955.822,526.004C957.781,525.901 959.022,527.717 959.075,529.982C959.122,532.038 958.397,534.132 956.356,534.326Z" style="fill:url(#_Linear5);"/>
                        </g>
                        <g transform="matrix(1.14286,0,0,1.14286,649.932,-72.5023)">
                            <path d="M950.6,540.838C948.207,541.169 946.757,539.11 946.744,537.02C946.732,534.823 947.907,532.954 949.807,532.782C951.785,532.604 952.985,534.641 953.172,536.429C953.385,538.451 952.666,540.554 950.6,540.838Z" style="fill:url(#_Linear6);"/>
                        </g>
                        <g transform="matrix(1.14286,0,0,1.14286,649.932,-72.5023)">
                            <path d="M969.4,540.838C967.334,540.554 966.615,538.451 966.828,536.429C967.015,534.641 968.215,532.604 970.193,532.782C972.093,532.954 973.268,534.823 973.256,537.02C973.243,539.11 971.793,541.169 969.4,540.838Z" style="fill:url(#_Linear7);"/>
                        </g>
                    </g>
                </g>
            </g>
        </g>
    </g>
    <defs>
        <radialGradient id="_Radial3" cx="0" cy="0" r="1" gradientUnits="userSpaceOnUse" gradientTransform="matrix(26.512,0,0,26.512,960,545.278)"><stop offset="0" style="stop-color:rgb(215,138,141);stop-opacity:1"/><stop offset="0.45" style="stop-color:rgb(209,94,86);stop-opacity:1"/><stop offset="1" style="stop-color:rgb(207,82,71);stop-opacity:1"/></radialGradient>
        <linearGradient id="_Linear4" x1="0" y1="0" x2="1" y2="0" gradientUnits="userSpaceOnUse" gradientTransform="matrix(0.139254,8.3425,-8.3425,0.139254,964.02,526)"><stop offset="0" style="stop-color:rgb(215,138,141);stop-opacity:1"/><stop offset="0.53" style="stop-color:rgb(209,97,90);stop-opacity:1"/><stop offset="1" style="stop-color:rgb(207,82,71);stop-opacity:1"/></linearGradient>
        <linearGradient id="_Linear5" x1="0" y1="0" x2="1" y2="0" gradientUnits="userSpaceOnUse" gradientTransform="matrix(5.10359e-16,8.3348,-8.3348,5.10359e-16,955.84,526.003)"><stop offset="0" style="stop-color:rgb(215,138,141);stop-opacity:1"/><stop offset="0.53" style="stop-color:rgb(209,97,90);stop-opacity:1"/><stop offset="1" style="stop-color:rgb(207,82,71);stop-opacity:1"/></linearGradient>
        <linearGradient id="_Linear6" x1="0" y1="0" x2="1" y2="0" gradientUnits="userSpaceOnUse" gradientTransform="matrix(4.80542e-16,7.84785,-7.84785,4.80542e-16,949.976,532.771)"><stop offset="0" style="stop-color:rgb(215,138,141);stop-opacity:1"/><stop offset="0.53" style="stop-color:rgb(209,97,90);stop-opacity:1"/><stop offset="1" style="stop-color:rgb(207,82,71);stop-opacity:1"/></linearGradient>
        <linearGradient id="_Linear7" x1="0" y1="0" x2="1" y2="0" gradientUnits="userSpaceOnUse" gradientTransform="matrix(4.95914e-16,8.09889,-8.09889,4.95914e-16,970.024,532.772)"><stop offset="0" style="stop-color:rgb(215,138,141);stop-opacity:1"/><stop offset="0.53" style="stop-color:rgb(209,97,90);stop-opacity:1"/><stop offset="1" style="stop-color:rgb(207,82,71);stop-opacity:1"/></linearGradient>
    </defs>
</svg>
